app/src/main/assets/luts/dreamy.cube
# Dreamy preset — soft, lifted-shadow, pastel-tinted grade
TITLE "Dreamy"
LUT_3D_SIZE 9
DOMAIN_MIN 0.0 0.0 0.0
DOMAIN_MAX 1.0 1.0 1.0
0.000000 0.000000 0.028500
0.000000 0.000000 0.028500
0.092523 0.002679 0.033218
0.230835 0.012751 0.039614
0.363921 0.022442 0.045769
0.497885 0.032197 0.051964
0.639951 0.042543 0.058534
0.801067 0.054275 0.065985
0.813559 0.055185 0.066563
0.000000 0.000000 0.028500
0.000000 0.000000 0.028500
0.092523 0.002679 0.033218
0.230835 0.012751 0.039614
0.363921 0.022442 0.045769
0.497885 0.032197 0.051964
0.639951 0.042543 0.058534
0.801067 0.054275 0.065985
0.813559 0.055185 0.066563
0.005845 0.104041 0.037763
0.005845 0.104041 0.037763
0.107868 0.111471 0.042481
0.246181 0.121542 0.048877
0.379266 0.131234 0.055032
0.513231 0.140989 0.061227
0.655296 0.151334 0.067797
0.816412 0.163066 0.075248
0.828905 0.163976 0.075825
0.026649 0.251530 0.050320
0.026649 0.251530 0.050320
0.128672 0.258960 0.055038
0.266985 0.269031 0.061434
0.400070 0.278723 0.067589
0.534035 0.288478 0.073784
0.676546 0.299046 0.080131
0.840984 0.312439 0.086512
0.853658 0.313439 0.087237
0.046667 0.393445 0.062403
0.046667 0.393445 0.062403
0.148690 0.400874 0.067121
0.287003 0.410946 0.073517
0.420208 0.420697 0.079612
0.557132 0.431932 0.084327
0.701338 0.443347 0.092320
0.864789 0.456247 0.101661
0.877462 0.457247 0.102385
0.066817 0.536297 0.074565
0.066817 0.536297 0.074565
0.168840 0.543727 0.079283
0.310142 0.555293 0.084185
0.445269 0.566005 0.091564
0.581175 0.576731 0.099331
0.725300 0.588106 0.107568
0.888751 0.601006 0.116910
0.901425 0.602006 0.117634
0.091846 0.689618 0.086084
0.091846 0.689618 0.086084
0.195348 0.697787 0.091999
0.335666 0.708861 0.100019
0.470680 0.719517 0.107735
0.606586 0.730243 0.115502
0.750711 0.741618 0.123739
0.914162 0.754518 0.133080
0.926836 0.755518 0.133805
0.120665 0.863716 0.104423
0.120665 0.863716 0.104423
0.224167 0.871884 0.110338
0.364484 0.882959 0.118358
0.499498 0.893614 0.126074
0.635405 0.904341 0.133841
0.779530 0.915715 0.142078
0.942981 0.928615 0.151419
0.955654 0.929615 0.152144
0.122900 0.877215 0.105845
0.122900 0.877215 0.105845
0.226401 0.885383 0.111760
0.366719 0.896458 0.119780
0.501733 0.907113 0.127496
0.637639 0.917839 0.135263
0.781764 0.929214 0.143500
0.945215 0.942114 0.152841
0.957889 0.943114 0.153566
0.000000 0.000000 0.028500
0.000000 0.000000 0.028500
0.092523 0.002679 0.033218
0.230835 0.012751 0.039614
0.363921 0.022442 0.045769
0.497885 0.032197 0.051964
0.639951 0.042543 0.058534
0.801067 0.054275 0.065985
0.813559 0.055185 0.066563
0.000000 0.000000 0.028500
0.000000 0.000000 0.028500
0.092523 0.002679 0.033218
0.230835 0.012751 0.039614
0.363921 0.022442 0.045769
0.497885 0.032197 0.051964
0.639951 0.042543 0.058534
0.801067 0.054275 0.065985
0.813559 0.055185 0.066563
0.005845 0.104041 0.037763
0.005845 0.104041 0.037763
0.107868 0.111471 0.042481
0.246181 0.121542 0.048877
0.379266 0.131234 0.055032
0.513231 0.140989 0.061227
0.655296 0.151334 0.067797
0.816412 0.163066 0.075248
0.828905 0.163976 0.075825
0.026649 0.251530 0.050320
0.026649 0.251530 0.050320
0.128672 0.258960 0.055038
0.266985 0.269031 0.061434
0.400070 0.278723 0.067589
0.534035 0.288478 0.073784
0.676546 0.299046 0.080131
0.840984 0.312439 0.086512
0.853658 0.313439 0.087237
0.046667 0.393445 0.062403
0.046667 0.393445 0.062403
0.148690 0.400874 0.067121
0.287003 0.410946 0.073517
0.420208 0.420697 0.079612
0.557132 0.431932 0.084327
0.701338 0.443347 0.092320
0.864789 0.456247 0.101661
0.877462 0.457247 0.102385
0.066817 0.536297 0.074565
0.066817 0.536297 0.074565
0.168840 0.543727 0.079283
0.310142 0.555293 0.084185
0.445269 0.566005 0.091564
0.581175 0.576731 0.099331
0.725300 0.588106 0.107568
0.888751 0.601006 0.116910
0.901425 0.602006 0.117634
0.091846 0.689618 0.086084
0.091846 0.689618 0.086084
0.195348 0.697787 0.091999
0.335666 0.708861 0.100019
0.470680 0.719517 0.107735
0.606586 0.730243 0.115502
0.750711 0.741618 0.123739
0.914162 0.754518 0.133080
0.926836 0.755518 0.133805
0.120665 0.863716 0.104423
0.120665 0.863716 0.104423
0.224167 0.871884 0.110338
0.364484 0.882959 0.118358
0.499498 0.893614 0.126074
0.635405 0.904341 0.133841
0.779530 0.915715 0.142078
0.942981 0.928615 0.151419
0.955654 0.929615 0.152144
0.122900 0.877215 0.105845
0.122900 0.877215 0.105845
0.226401 0.885383 0.111760
0.366719 0.896458 0.119780
0.501733 0.907113 0.127496
0.637639 0.917839 0.135263
0.781764 0.929214 0.143500
0.945215 0.942114 0.152841
0.957889 0.943114 0.153566
0.000000 0.000000 0.124505
0.000000 0.000000 0.124505
0.095503 0.005512 0.129223
0.233816 0.015584 0.135620
0.366901 0.025275 0.141774
0.500866 0.035030 0.147969
0.642931 0.045375 0.154539
0.804047 0.057107 0.161990
0.816539 0.058017 0.162568
0.000000 0.000000 0.124505
0.000000 0.000000 0.124505
0.095503 0.005512 0.129223
0.233816 0.015584 0.135620
0.366901 0.025275 0.141774
0.500866 0.035030 0.147969
0.642931 0.045375 0.154539
0.804047 0.057107 0.161990
0.816539 0.058017 0.162568
0.008826 0.106874 0.133768
0.008826 0.106874 0.133768
0.110848 0.114303 0.138486
0.249161 0.124375 0.144882
0.382246 0.134066 0.151037
0.516211 0.143821 0.157232
0.658276 0.154166 0.163802
0.819392 0.165899 0.171253
0.831885 0.166808 0.171830
0.029630 0.254363 0.146325
0.029630 0.254363 0.146325
0.131652 0.261792 0.151043
0.269965 0.271864 0.157439
0.403050 0.281555 0.163594
0.537015 0.291310 0.169789
0.680386 0.302308 0.175707
0.844528 0.315554 0.182974
0.857202 0.316554 0.183698
0.049647 0.396277 0.158408
0.049647 0.396277 0.158408
0.151670 0.403707 0.163126
0.289983 0.413778 0.169522
0.424047 0.423959 0.175187
0.560757 0.435087 0.180544
0.704882 0.446462 0.188781
0.868333 0.459362 0.198122
0.881007 0.460362 0.198847
0.069797 0.539130 0.170570
0.069797 0.539130 0.170570
0.172614 0.546956 0.174892
0.313799 0.558464 0.180309
0.448813 0.569119 0.188026
0.584719 0.579846 0.195793
0.728844 0.591220 0.204030
0.892295 0.604120 0.213371
0.904969 0.605121 0.214095
0.095391 0.692733 0.182546
0.095391 0.692733 0.182546
0.198892 0.700902 0.188461
0.339210 0.711976 0.196480
0.474224 0.722631 0.204196
0.610130 0.733358 0.211964
0.754255 0.744732 0.220200
0.917706 0.757632 0.229542
0.930380 0.758632 0.230266
0.124209 0.866830 0.200885
0.124209 0.866830 0.200885
0.227711 0.874999 0.206800
0.368028 0.886073 0.214819
0.503042 0.896729 0.222535
0.638949 0.907455 0.230303
0.783074 0.918830 0.238540
0.946525 0.931730 0.247881
0.959198 0.932730 0.248605
0.126444 0.880329 0.202307
0.126444 0.880329 0.202307
0.229945 0.888498 0.208222
0.370263 0.899572 0.216241
0.505277 0.910228 0.223957
0.641183 0.920954 0.231725
0.785308 0.932329 0.239961
0.948759 0.945229 0.249303
0.961433 0.946229 0.250027
0.000000 0.001923 0.254660
0.000000 0.001923 0.254660
0.099543 0.009352 0.259378
0.237856 0.019424 0.265774
0.370941 0.029115 0.271929
0.504906 0.038870 0.278124
0.646971 0.049215 0.284694
0.808087 0.060948 0.292145
0.820580 0.061857 0.292722
0.000000 0.001923 0.254660
0.000000 0.001923 0.254660
0.099543 0.009352 0.259378
0.237856 0.019424 0.265774
0.370941 0.029115 0.271929
0.504906 0.038870 0.278124
0.646971 0.049215 0.284694
0.808087 0.060948 0.292145
0.820580 0.061857 0.292722
0.012866 0.110714 0.263922
0.012866 0.110714 0.263922
0.114889 0.118143 0.268640
0.253201 0.128215 0.275037
0.386287 0.137906 0.281191
0.520251 0.147661 0.287386
0.662317 0.158007 0.293956
0.823464 0.169754 0.301392
0.836232 0.170802 0.301831
0.033670 0.258203 0.276480
0.033670 0.258203 0.276480
0.135693 0.265632 0.281198
0.274005 0.275704 0.287594
0.407090 0.285395 0.293749
0.541055 0.295150 0.299944
0.685591 0.306730 0.305279
0.849333 0.319776 0.313747
0.862006 0.320776 0.314472
0.053688 0.400117 0.288562
0.053688 0.400117 0.288562
0.155710 0.407547 0.293280
0.294023 0.417618 0.299677
0.429252 0.428382 0.304759
0.565562 0.439309 0.311318
0.709686 0.450684 0.319554
0.873138 0.463584 0.328896
0.885811 0.464584 0.329620
0.073838 0.542970 0.300725
0.073838 0.542970 0.300725
0.177819 0.551378 0.304464
0.318603 0.562686 0.311083
0.453617 0.573342 0.318799
0.589524 0.584068 0.326566
0.733649 0.595443 0.334803
0.897100 0.608343 0.344144
0.909773 0.609343 0.344869
0.100195 0.696955 0.313319
0.100195 0.696955 0.313319
0.203697 0.705124 0.319234
0.344014 0.716198 0.327253
0.479028 0.726854 0.334970
0.614935 0.737580 0.342737
0.759060 0.748955 0.350974
0.922511 0.761855 0.360315
0.935184 0.762855 0.361039
0.129014 0.871053 0.331658
0.129014 0.871053 0.331658
0.232515 0.879221 0.337573
0.372833 0.890295 0.345593
0.507847 0.900951 0.353309
0.643754 0.911677 0.361076
0.787878 0.923052 0.369313
0.951330 0.935952 0.378654
0.964003 0.936952 0.379379
0.131248 0.884552 0.333080
0.131248 0.884552 0.333080
0.234750 0.892720 0.338995
0.375067 0.903794 0.347015
0.510082 0.914450 0.354731
0.645988 0.925176 0.362498
0.790113 0.936551 0.370735
0.953564 0.949451 0.380076
0.966238 0.950451 0.380800
0.001408 0.005618 0.379895
0.001408 0.005618 0.379895
0.103431 0.013047 0.384613
0.241744 0.023119 0.391009
0.374829 0.032810 0.397164
0.508793 0.042565 0.403359
0.650859 0.052910 0.409929
0.811975 0.064642 0.417380
0.824467 0.065552 0.417958
0.001408 0.005618 0.379895
0.001408 0.005618 0.379895
0.103431 0.013047 0.384613
0.241744 0.023119 0.391009
0.374829 0.032810 0.397164
0.508793 0.042565 0.403359
0.650859 0.052910 0.409929
0.811975 0.064642 0.417380
0.824467 0.065552 0.417958
0.016754 0.114409 0.389158
0.016754 0.114409 0.389158
0.118776 0.121838 0.393876
0.257089 0.131910 0.400272
0.390174 0.141601 0.406426
0.524139 0.151356 0.412622
0.666204 0.161702 0.419192
0.828472 0.174010 0.426067
0.841240 0.175057 0.426506
0.037558 0.261898 0.401715
0.037558 0.261898 0.401715
0.139580 0.269327 0.406433
0.277893 0.279399 0.412829
0.410978 0.289090 0.418984
0.545396 0.299072 0.424953
0.690505 0.310939 0.430237
0.853956 0.323839 0.439578
0.866630 0.324839 0.440302
0.057575 0.403812 0.413798
0.057575 0.403812 0.413798
0.159598 0.411242 0.418516
0.298236 0.421476 0.424749
0.434261 0.432637 0.429434
0.570185 0.443372 0.437148
0.714309 0.454747 0.445385
0.877761 0.467647 0.454726
0.890434 0.468647 0.455451
0.078551 0.547078 0.425547
0.078551 0.547078 0.425547
0.182827 0.555634 0.429139
0.323226 0.566749 0.436913
0.458240 0.577404 0.444630
0.594147 0.588131 0.452397
0.738272 0.599505 0.460634
0.901723 0.612405 0.469975
0.914396 0.613406 0.470699
0.104818 0.701018 0.439150
0.104818 0.701018 0.439150
0.208320 0.709186 0.445065
0.348637 0.720261 0.453084
0.483651 0.730916 0.460800
0.619558 0.741643 0.468567
0.763683 0.753017 0.476804
0.927134 0.765917 0.486146
0.939807 0.766917 0.486870
0.133637 0.875115 0.457489
0.133637 0.875115 0.457489
0.237138 0.883284 0.463404
0.377456 0.894358 0.471423
0.512470 0.905014 0.479139
0.648377 0.915740 0.486907
0.792501 0.927115 0.495143
0.955953 0.940015 0.504485
0.968626 0.941015 0.505209
0.135871 0.888614 0.458911
0.135871 0.888614 0.458911
0.239373 0.896783 0.464826
0.379690 0.907857 0.472845
0.514705 0.918513 0.480561
0.650611 0.929239 0.488329
0.794736 0.940614 0.496565
0.958187 0.953514 0.505907
0.970861 0.954514 0.506631
0.005321 0.009337 0.505958
0.005321 0.009337 0.505958
0.107344 0.016766 0.510676
0.245657 0.026838 0.517072
0.378742 0.036529 0.523227
0.512707 0.046284 0.529422
0.654772 0.056629 0.535992
0.815888 0.068362 0.543443
0.828380 0.069272 0.544021
0.005321 0.009337 0.505958
0.005321 0.009337 0.505958
0.107344 0.016766 0.510676
0.245657 0.026838 0.517072
0.378742 0.036529 0.523227
0.512707 0.046284 0.529422
0.654772 0.056629 0.535992
0.815888 0.068362 0.543443
0.828380 0.069272 0.544021
0.020667 0.118128 0.515221
0.020667 0.118128 0.515221
0.122690 0.125558 0.519939
0.261002 0.135629 0.526335
0.394087 0.145321 0.532490
0.528052 0.155076 0.538685
0.670118 0.165421 0.545255
0.833514 0.178293 0.551566
0.846282 0.179341 0.552005
0.041471 0.265617 0.527778
0.041471 0.265617 0.527778
0.143494 0.273046 0.532496
0.281806 0.283118 0.538892
0.414891 0.292809 0.545047
0.550437 0.303355 0.550452
0.695158 0.315028 0.556899
0.858610 0.327928 0.566240
0.871283 0.328928 0.566965
0.061488 0.407532 0.539861
0.061488 0.407532 0.539861
0.163511 0.414961 0.544579
0.303277 0.425760 0.550248
0.438932 0.436735 0.556043
0.574838 0.447462 0.563811
0.718963 0.458836 0.572047
0.882414 0.471736 0.581389
0.895088 0.472736 0.582113
0.083593 0.551361 0.551046
0.083593 0.551361 0.551046
0.187562 0.559764 0.555557
0.327880 0.570838 0.563576
0.462894 0.581494 0.571292
0.598801 0.592220 0.579059
0.742925 0.603595 0.587296
0.906377 0.616495 0.596637
0.919050 0.617495 0.597362
0.109472 0.705107 0.565812
0.109472 0.705107 0.565812
0.212973 0.713276 0.571727
0.353291 0.724350 0.579747
0.488305 0.735006 0.587463
0.624212 0.745732 0.595230
0.768336 0.757107 0.603467
0.931788 0.770007 0.612808
0.944461 0.771007 0.613532
0.138291 0.879205 0.584151
0.138291 0.879205 0.584151
0.241792 0.887373 0.590066
0.382110 0.898448 0.598086
0.517124 0.909103 0.605802
0.653030 0.919830 0.613569
0.797155 0.931204 0.621806
0.960606 0.944104 0.631147
0.973280 0.945104 0.631872
0.140525 0.892704 0.585573
0.140525 0.892704 0.585573
0.244027 0.900872 0.591488
0.384344 0.911947 0.599508
0.519358 0.922602 0.607224
0.655265 0.933328 0.614991
0.799389 0.944703 0.623228
0.962841 0.957603 0.632569
0.975514 0.958603 0.633293
0.009471 0.013281 0.639644
0.009471 0.013281 0.639644
0.111494 0.020710 0.644362
0.249807 0.030782 0.650758
0.382892 0.040473 0.656913
0.516857 0.050229 0.663108
0.658922 0.060574 0.669678
0.820038 0.072306 0.677129
0.832530 0.073216 0.677707
0.009471 0.013281 0.639644
0.009471 0.013281 0.639644
0.111494 0.020710 0.644362
0.249807 0.030782 0.650758
0.382892 0.040473 0.656913
0.516857 0.050229 0.663108
0.658922 0.060574 0.669678
0.820038 0.072306 0.677129
0.832530 0.073216 0.677707
0.024817 0.122073 0.648906
0.024817 0.122073 0.648906
0.126840 0.129502 0.653625
0.265152 0.139574 0.660021
0.398237 0.149265 0.666175
0.532202 0.159020 0.672371
0.674268 0.169365 0.678941
0.838805 0.182808 0.684818
0.851478 0.183808 0.685543
0.045621 0.269562 0.661464
0.045621 0.269562 0.661464
0.147644 0.276991 0.666182
0.285956 0.287063 0.672578
0.419041 0.296754 0.678733
0.555783 0.307898 0.683539
0.700093 0.319365 0.691220
0.863545 0.332265 0.700562
0.876218 0.333265 0.701286
0.065638 0.411476 0.673547
0.065638 0.411476 0.673547
0.167661 0.418905 0.678265
0.308624 0.430302 0.683336
0.443867 0.441072 0.690365
0.579774 0.451798 0.698132
0.723898 0.463173 0.706369
0.887349 0.476073 0.715710
0.900023 0.477073 0.716435
0.088939 0.555904 0.684134
0.088939 0.555904 0.684134
0.192497 0.564101 0.689878
0.332815 0.575175 0.697897
0.467829 0.585831 0.705613
0.603736 0.596557 0.713381
0.747860 0.607932 0.721618
0.911312 0.620832 0.730959
0.923985 0.621832 0.731683
0.114407 0.709444 0.700133
0.114407 0.709444 0.700133
0.217909 0.717613 0.706049
0.358226 0.728687 0.714068
0.493240 0.739343 0.721784
0.629147 0.750069 0.729551
0.773271 0.761444 0.737788
0.936723 0.774344 0.747130
0.949396 0.775344 0.747854
0.143226 0.883542 0.718473
0.143226 0.883542 0.718473
0.246727 0.891710 0.724388
0.387045 0.902785 0.732407
0.522059 0.913440 0.740123
0.657965 0.924166 0.747890
0.802090 0.935541 0.756127
0.965541 0.948441 0.765469
0.978215 0.949441 0.766193
0.145460 0.897041 0.719895
0.145460 0.897041 0.719895
0.248962 0.905209 0.725810
0.389279 0.916284 0.733829
0.524293 0.926939 0.741545
0.660200 0.937665 0.749312
0.804324 0.949040 0.757549
0.967776 0.961940 0.766891
0.980449 0.962940 0.767615
0.014178 0.017754 0.791257
0.014178 0.017754 0.791257
0.116200 0.025184 0.795975
0.254513 0.035256 0.802371
0.387598 0.044947 0.808526
0.521563 0.054702 0.814721
0.663628 0.065047 0.821291
0.825154 0.076984 0.828537
0.837922 0.078032 0.828977
0.014178 0.017754 0.791257
0.014178 0.017754 0.791257
0.116200 0.025184 0.795975
0.254513 0.035256 0.802371
0.387598 0.044947 0.808526
0.521563 0.054702 0.814721
0.663628 0.065047 0.821291
0.825154 0.076984 0.828537
0.837922 0.078032 0.828977
0.029523 0.126546 0.800519
0.029523 0.126546 0.800519
0.131546 0.133975 0.805237
0.269859 0.144047 0.811634
0.402944 0.153738 0.817788
0.536908 0.163493 0.823983
0.680248 0.174476 0.829916
0.844402 0.187727 0.837152
0.857075 0.188727 0.837876
0.050327 0.274035 0.813077
0.050327 0.274035 0.813077
0.152350 0.281464 0.817795
0.290663 0.291536 0.824191
0.424923 0.301815 0.829758
0.561566 0.312909 0.835317
0.705690 0.324283 0.843554
0.869141 0.337183 0.852895
0.881815 0.338184 0.853620
0.070345 0.415949 0.825159
0.070345 0.415949 0.825159
0.173319 0.423854 0.829402
0.314450 0.435335 0.834982
0.449464 0.445991 0.842698
0.585370 0.456717 0.850466
0.729495 0.468091 0.858702
0.892946 0.480991 0.868044
0.905620 0.481992 0.868768
0.094593 0.560851 0.836296
0.094593 0.560851 0.836296
0.198094 0.569019 0.842212
0.338412 0.580094 0.850231
0.473426 0.590749 0.857947
0.609332 0.601475 0.865714
0.753457 0.612850 0.873951
0.916908 0.625750 0.883292
0.929582 0.626750 0.884017
0.120004 0.714363 0.852467
0.120004 0.714363 0.852467
0.223505 0.722531 0.858382
0.363823 0.733606 0.866402
0.498837 0.744261 0.874118
0.634743 0.754987 0.881885
0.778868 0.766362 0.890122
0.942319 0.779262 0.899463
0.954993 0.780262 0.900187
0.148822 0.888460 0.870806
0.148822 0.888460 0.870806
0.252324 0.896629 0.876721
0.392641 0.907703 0.884741
0.527656 0.918359 0.892457
0.663562 0.929085 0.900224
0.807687 0.940459 0.908461
0.971138 0.953359 0.917802
0.983812 0.954360 0.918527
0.151057 0.901959 0.872228
0.151057 0.901959 0.872228
0.254558 0.910128 0.878143
0.394876 0.921202 0.886163
0.529890 0.931858 0.893879
0.665797 0.942584 0.901646
0.809921 0.953958 0.909883
0.973373 0.966858 0.919224
0.986046 0.967859 0.919949
0.014543 0.018101 0.803012
0.014543 0.018101 0.803012
0.116565 0.025531 0.807730
0.254878 0.035602 0.814127
0.387963 0.045294 0.820281
0.521928 0.055049 0.826476
0.663993 0.065394 0.833046
0.825624 0.077383 0.840240
0.838392 0.078431 0.840680
0.014543 0.018101 0.803012
0.014543 0.018101 0.803012
0.116565 0.025531 0.807730
0.254878 0.035602 0.814127
0.387963 0.045294 0.820281
0.521928 0.055049 0.826476
0.663993 0.065394 0.833046
0.825624 0.077383 0.840240
0.838392 0.078431 0.840680
0.029888 0.126893 0.812275
0.029888 0.126893 0.812275
0.131911 0.134322 0.816993
0.270224 0.144394 0.823389
0.403309 0.154085 0.829544
0.537273 0.163840 0.835739
0.680719 0.174875 0.841619
0.844836 0.188108 0.848963
0.857509 0.189108 0.849688
0.050692 0.274382 0.824832
0.050692 0.274382 0.824832
0.152715 0.281811 0.829550
0.291028 0.291883 0.835947
0.425393 0.302214 0.841461
0.561999 0.313290 0.847129
0.706124 0.324665 0.855365
0.869575 0.337565 0.864707
0.882249 0.338565 0.865431
0.070710 0.416296 0.836915
0.070710 0.416296 0.836915
0.173789 0.424254 0.841104
0.314884 0.435716 0.846794
0.449898 0.446372 0.854510
0.585804 0.457098 0.862277
0.729929 0.468473 0.870514
0.893380 0.481373 0.879855
0.906054 0.482373 0.880580
0.095027 0.561232 0.848108
0.095027 0.561232 0.848108
0.198528 0.569401 0.854023
0.338846 0.580475 0.862042
0.473860 0.591131 0.869759
0.609766 0.601857 0.877526
0.753891 0.613231 0.885763
0.917342 0.626131 0.895104
0.930016 0.627132 0.895828
0.120438 0.714744 0.864279
0.120438 0.714744 0.864279
0.223939 0.722913 0.870194
0.364257 0.733987 0.878213
0.499271 0.744643 0.885929
0.635177 0.755369 0.893696
0.779302 0.766743 0.901933
0.942753 0.779643 0.911275
0.955427 0.780644 0.911999
0.149256 0.888841 0.882618
0.149256 0.888841 0.882618
0.252758 0.897010 0.888533
0.393075 0.908084 0.896552
0.528090 0.918740 0.904268
0.663996 0.929466 0.912035
0.808121 0.940841 0.920272
0.971572 0.953741 0.929614
0.984245 0.954741 0.930338
0.151491 0.902340 0.884040
0.151491 0.902340 0.884040
0.254992 0.910509 0.889955
0.395310 0.921583 0.897974
0.530324 0.932239 0.905690
0.666231 0.942965 0.913457
0.810355 0.954340 0.921694
0.973807 0.967240 0.931036
0.986480 0.968240 0.931760
