app/src/main/assets/luts/dreamy.cube
# Dreamy preset — soft, lifted-shadow, pastel-tinted grade
TITLE "Dreamy"
LUT_3D_SIZE 5
DOMAIN_MIN 0.0 0.0 0.0
DOMAIN_MAX 1.0 1.0 1.0
0.000000 0.000000 0.028500
0.092523 0.002679 0.033218
0.363921 0.022442 0.045769
0.639951 0.042543 0.058534
0.813559 0.055185 0.066563
0.005845 0.104041 0.037763
0.107868 0.111471 0.042481
0.379266 0.131234 0.055032
0.655296 0.151334 0.067797
0.828905 0.163976 0.075825
0.046667 0.393445 0.062403
0.148690 0.400874 0.067121
0.420208 0.420697 0.079612
0.701338 0.443347 0.092320
0.877462 0.457247 0.102385
0.091846 0.689618 0.086084
0.195348 0.697787 0.091999
0.470680 0.719517 0.107735
0.750711 0.741618 0.123739
0.926836 0.755518 0.133805
0.122900 0.877215 0.105845
0.226401 0.885383 0.111760
0.501733 0.907113 0.127496
0.781764 0.929214 0.143500
0.957889 0.943114 0.153566
0.000000 0.000000 0.124505
0.095503 0.005512 0.129223
0.366901 0.025275 0.141774
0.642931 0.045375 0.154539
0.816539 0.058017 0.162568
0.008826 0.106874 0.133768
0.110848 0.114303 0.138486
0.382246 0.134066 0.151037
0.658276 0.154166 0.163802
0.831885 0.166808 0.171830
0.049647 0.396277 0.158408
0.151670 0.403707 0.163126
0.424047 0.423959 0.175187
0.704882 0.446462 0.188781
0.881007 0.460362 0.198847
0.095391 0.692733 0.182546
0.198892 0.700902 0.188461
0.474224 0.722631 0.204196
0.754255 0.744732 0.220200
0.930380 0.758632 0.230266
0.126444 0.880329 0.202307
0.229945 0.888498 0.208222
0.505277 0.910228 0.223957
0.785308 0.932329 0.239961
0.961433 0.946229 0.250027
0.001408 0.005618 0.379895
0.103431 0.013047 0.384613
0.374829 0.032810 0.397164
0.650859 0.052910 0.409929
0.824467 0.065552 0.417958
0.016754 0.114409 0.389158
0.118776 0.121838 0.393876
0.390174 0.141601 0.406426
0.666204 0.161702 0.419192
0.841240 0.175057 0.426506
0.057575 0.403812 0.413798
0.159598 0.411242 0.418516
0.434261 0.432637 0.429434
0.714309 0.454747 0.445385
0.890434 0.468647 0.455451
0.104818 0.701018 0.439150
0.208320 0.709186 0.445065
0.483651 0.730916 0.460800
0.763683 0.753017 0.476804
0.939807 0.766917 0.486870
0.135871 0.888614 0.458911
0.239373 0.896783 0.464826
0.514705 0.918513 0.480561
0.794736 0.940614 0.496565
0.970861 0.954514 0.506631
0.009471 0.013281 0.639644
0.111494 0.020710 0.644362
0.382892 0.040473 0.656913
0.658922 0.060574 0.669678
0.832530 0.073216 0.677707
0.024817 0.122073 0.648906
0.126840 0.129502 0.653625
0.398237 0.149265 0.666175
0.674268 0.169365 0.678941
0.851478 0.183808 0.685543
0.065638 0.411476 0.673547
0.167661 0.418905 0.678265
0.443867 0.441072 0.690365
0.723898 0.463173 0.706369
0.900023 0.477073 0.716435
0.114407 0.709444 0.700133
0.217909 0.717613 0.706049
0.493240 0.739343 0.721784
0.773271 0.761444 0.737788
0.949396 0.775344 0.747854
0.145460 0.897041 0.719895
0.248962 0.905209 0.725810
0.524293 0.926939 0.741545
0.804324 0.949040 0.757549
0.980449 0.962940 0.767615
0.014543 0.018101 0.803012
0.116565 0.025531 0.807730
0.387963 0.045294 0.820281
0.663993 0.065394 0.833046
0.838392 0.078431 0.840680
0.029888 0.126893 0.812275
0.131911 0.134322 0.816993
0.403309 0.154085 0.829544
0.680719 0.174875 0.841619
0.857509 0.189108 0.849688
0.070710 0.416296 0.836915
0.173789 0.424254 0.841104
0.449898 0.446372 0.854510
0.729929 0.468473 0.870514
0.906054 0.482373 0.880580
0.120438 0.714744 0.864279
0.223939 0.722913 0.870194
0.499271 0.744643 0.885929
0.779302 0.766743 0.901933
0.955427 0.780644 0.911999
0.151491 0.902340 0.884040
0.254992 0.910509 0.889955
0.530324 0.932239 0.905690
0.810355 0.954340 0.921694
0.986480 0.968240 0.931760
