app/src/main/assets/luts/dreamy.cube
# Dreamy preset — soft, lifted-shadow, pastel-tinted grade
TITLE "Dreamy"
LUT_3D_SIZE 25
DOMAIN_MIN 0.0 0.0 0.0
DOMAIN_MAX 1.0 1.0 1.0
0.000000 0.000000 0.028500
0.000000 0.000000 0.028500
0.000000 0.000000 0.028500
0.000000 0.000000 0.028500
0.000000 0.000000 0.028665
0.044114 0.000000 0.030979
0.092523 0.002679 0.033218
0.139600 0.006107 0.035395
0.185621 0.009459 0.037523
0.230835 0.012751 0.039614
0.275477 0.016002 0.041679
0.319765 0.019227 0.043727
0.363921 0.022442 0.045769
0.408165 0.025664 0.047815
0.452734 0.028910 0.049876
0.497885 0.032197 0.051964
0.543908 0.035549 0.054093
0.591133 0.038988 0.056277
0.639951 0.042543 0.058534
0.690823 0.046247 0.060887
0.744304 0.050141 0.063360
0.801067 0.054275 0.065985
0.813559 0.055185 0.066563
0.813559 0.055185 0.066563
0.813559 0.055185 0.066563
0.000000 0.000000 0.028500
0.000000 0.000000 0.028500
0.000000 0.000000 0.028500
0.000000 0.000000 0.028500
0.000000 0.000000 0.028665
0.044114 0.000000 0.030979
0.092523 0.002679 0.033218
0.139600 0.006107 0.035395
0.185621 0.009459 0.037523
0.230835 0.012751 0.039614
0.275477 0.016002 0.041679
0.319765 0.019227 0.043727
0.363921 0.022442 0.045769
0.408165 0.025664 0.047815
0.452734 0.028910 0.049876
0.497885 0.032197 0.051964
0.543908 0.035549 0.054093
0.591133 0.038988 0.056277
0.639951 0.042543 0.058534
0.690823 0.046247 0.060887
0.744304 0.050141 0.063360
0.801067 0.054275 0.065985
0.813559 0.055185 0.066563
0.813559 0.055185 0.066563
0.813559 0.055185 0.066563
0.000000 0.000000 0.028500
0.000000 0.000000 0.028500
0.000000 0.000000 0.028500
0.000000 0.000000 0.028500
0.000000 0.000000 0.028665
0.044114 0.000000 0.030979
0.092523 0.002679 0.033218
0.139600 0.006107 0.035395
0.185621 0.009459 0.037523
0.230835 0.012751 0.039614
0.275477 0.016002 0.041679
0.319765 0.019227 0.043727
0.363921 0.022442 0.045769
0.408165 0.025664 0.047815
0.452734 0.028910 0.049876
0.497885 0.032197 0.051964
0.543908 0.035549 0.054093
0.591133 0.038988 0.056277
0.639951 0.042543 0.058534
0.690823 0.046247 0.060887
0.744304 0.050141 0.063360
0.801067 0.054275 0.065985
0.813559 0.055185 0.066563
0.813559 0.055185 0.066563
0.813559 0.055185 0.066563
0.000000 0.000000 0.028500
0.000000 0.000000 0.028500
0.000000 0.000000 0.028500
0.000000 0.000000 0.028500
0.000000 0.000000 0.028665
0.044114 0.000000 0.030979
0.092523 0.002679 0.033218
0.139600 0.006107 0.035395
0.185621 0.009459 0.037523
0.230835 0.012751 0.039614
0.275477 0.016002 0.041679
0.319765 0.019227 0.043727
0.363921 0.022442 0.045769
0.408165 0.025664 0.047815
0.452734 0.028910 0.049876
0.497885 0.032197 0.051964
0.543908 0.035549 0.054093
0.591133 0.038988 0.056277
0.639951 0.042543 0.058534
0.690823 0.046247 0.060887
0.744304 0.050141 0.063360
0.801067 0.054275 0.065985
0.813559 0.055185 0.066563
0.813559 0.055185 0.066563
0.813559 0.055185 0.066563
0.000000 0.000000 0.028823
0.000000 0.000000 0.028823
0.000000 0.000000 0.028823
0.000000 0.000000 0.028823
0.000000 0.000000 0.028988
0.044650 0.002954 0.031303
0.093059 0.006479 0.033542
0.140136 0.009907 0.035719
0.186156 0.013258 0.037847
0.231371 0.016551 0.039938
0.276013 0.019801 0.042002
0.320301 0.023026 0.044051
0.364456 0.026242 0.046092
0.408701 0.029464 0.048139
0.453270 0.032709 0.050200
0.498421 0.035997 0.052288
0.544444 0.039348 0.054416
0.591669 0.042787 0.056600
0.640487 0.046342 0.058858
0.691359 0.050046 0.061210
0.744840 0.053941 0.063683
0.801603 0.058074 0.066308
0.814095 0.058984 0.066886
0.814095 0.058984 0.066886
0.814095 0.058984 0.066886
0.000000 0.052421 0.033368
0.000000 0.052421 0.033368
0.000000 0.052421 0.033368
0.000000 0.052421 0.033368
0.002127 0.052680 0.033532
0.052178 0.056325 0.035847
0.100587 0.059850 0.038086
0.147664 0.063278 0.040263
0.193685 0.066629 0.042391
0.238900 0.069922 0.044482
0.283541 0.073173 0.046546
0.327830 0.076398 0.048595
0.371985 0.079613 0.050637
0.416229 0.082835 0.052683
0.460798 0.086080 0.054744
0.505950 0.089368 0.056832
0.551972 0.092720 0.058960
0.599197 0.096159 0.061144
0.648015 0.099713 0.063402
0.698887 0.103418 0.065754
0.752369 0.107312 0.068228
0.809131 0.111446 0.070853
0.821623 0.112355 0.071430
0.821623 0.112355 0.071430
0.821623 0.112355 0.071430
0.005845 0.104041 0.037763
0.005845 0.104041 0.037763
0.005845 0.104041 0.037763
0.005845 0.104041 0.037763
0.009409 0.104301 0.037927
0.059459 0.107946 0.040242
0.107868 0.111471 0.042481
0.154945 0.114899 0.044658
0.200966 0.118250 0.046786
0.246181 0.121542 0.048877
0.290822 0.124793 0.050941
0.335111 0.128018 0.052990
0.379266 0.131234 0.055032
0.423510 0.134455 0.057078
0.468080 0.137701 0.059139
0.513231 0.140989 0.061227
0.559253 0.144340 0.063355
0.606479 0.147779 0.065539
0.655296 0.151334 0.067797
0.706168 0.155038 0.070149
0.759650 0.158933 0.072623
0.816412 0.163066 0.075248
0.828905 0.163976 0.075825
0.828905 0.163976 0.075825
0.828905 0.163976 0.075825
0.012926 0.154242 0.042037
0.012926 0.154242 0.042037
0.012926 0.154242 0.042037
0.012926 0.154242 0.042037
0.016490 0.154501 0.042201
0.066540 0.158146 0.044516
0.114949 0.161671 0.046755
0.162026 0.165099 0.048932
0.208047 0.168450 0.051060
0.253262 0.171743 0.053151
0.297903 0.174993 0.055216
0.342192 0.178218 0.057264
0.386347 0.181434 0.059306
0.430591 0.184656 0.061352
0.475160 0.187901 0.063413
0.520312 0.191189 0.065501
0.566334 0.194540 0.067629
0.613560 0.197979 0.069813
0.662377 0.201534 0.072071
0.713249 0.205239 0.074423
0.766731 0.209133 0.076897
0.823542 0.213291 0.079497
0.836310 0.214338 0.079937
0.836310 0.214338 0.079937
0.836310 0.214338 0.079937
0.019849 0.203316 0.046215
0.019849 0.203316 0.046215
0.019849 0.203316 0.046215
0.019849 0.203316 0.046215
0.023412 0.203575 0.046380
0.073463 0.207220 0.048694
0.121871 0.210745 0.050933
0.168948 0.214173 0.053110
0.214969 0.217524 0.055238
0.260184 0.220817 0.057329
0.304825 0.224067 0.059394
0.349114 0.227292 0.061442
0.393269 0.230508 0.063484
0.437513 0.233730 0.065530
0.482083 0.236975 0.067591
0.527234 0.240263 0.069679
0.573256 0.243614 0.071807
0.620482 0.247053 0.073991
0.669299 0.250608 0.076249
0.720171 0.254313 0.078602
0.774443 0.258602 0.080680
0.832459 0.263363 0.082678
0.845228 0.264410 0.083118
0.845228 0.264410 0.083118
0.845228 0.264410 0.083118
0.026649 0.251530 0.050320
0.026649 0.251530 0.050320
0.026649 0.251530 0.050320
0.026649 0.251530 0.050320
0.030213 0.251790 0.050485
0.080263 0.255434 0.052799
0.128672 0.258960 0.055038
0.175749 0.262388 0.057215
0.221770 0.265739 0.059343
0.266985 0.269031 0.061434
0.311626 0.272282 0.063499
0.355915 0.275507 0.065547
0.400070 0.278723 0.067589
0.444314 0.281944 0.069635
0.488883 0.285190 0.071696
0.534035 0.288478 0.073784
0.580057 0.291829 0.075912
0.627283 0.295268 0.078096
0.676546 0.299046 0.080131
0.728542 0.303312 0.081922
0.783205 0.307797 0.083804
0.840984 0.312439 0.086512
0.853658 0.313439 0.087237
0.853658 0.313439 0.087237
0.853658 0.313439 0.087237
0.033364 0.299133 0.054373
0.033364 0.299133 0.054373
0.033364 0.299133 0.054373
0.033364 0.299133 0.054373
0.036927 0.299393 0.054538
0.086978 0.303037 0.056852
0.135387 0.306562 0.059091
0.182464 0.309990 0.061268
0.228485 0.313342 0.063396
0.273699 0.316634 0.065487
0.318341 0.319885 0.067552
0.362629 0.323110 0.069600
0.406785 0.326325 0.071642
0.451029 0.329547 0.073688
0.495598 0.332793 0.075749
0.540749 0.336081 0.077837
0.587032 0.339562 0.079835
0.635301 0.343523 0.081498
0.685197 0.347617 0.083216
0.737127 0.351850 0.085202
0.791384 0.356132 0.088303
0.848969 0.360677 0.091594
0.861643 0.361677 0.092318
0.861643 0.361677 0.092318
0.861643 0.361677 0.092318
0.040026 0.346360 0.058394
0.040026 0.346360 0.058394
0.040026 0.346360 0.058394
0.040026 0.346360 0.058394
0.043589 0.346620 0.058559
0.093640 0.350264 0.060873
0.142048 0.353789 0.063112
0.189125 0.357218 0.065289
0.235146 0.360569 0.067417
0.280361 0.363861 0.069508
0.325002 0.367112 0.071573
0.369291 0.370337 0.073621
0.413446 0.373552 0.075663
0.457690 0.376774 0.077709
0.502427 0.380103 0.079686
0.548575 0.383890 0.081276
0.595614 0.387749 0.082896
0.643883 0.391710 0.084558
0.693440 0.395634 0.087294
0.745049 0.399708 0.090243
0.799306 0.403990 0.093344
0.856891 0.408534 0.096635
0.869565 0.409535 0.097359
0.869565 0.409535 0.097359
0.869565 0.409535 0.097359
0.046667 0.393445 0.062403
0.046667 0.393445 0.062403
0.046667 0.393445 0.062403
0.046667 0.393445 0.062403
0.050230 0.393704 0.062567
0.100281 0.397349 0.064882
0.148690 0.400874 0.067121
0.195767 0.404302 0.069298
0.241788 0.407653 0.071426
0.287003 0.410946 0.073517
0.331644 0.414197 0.075582
0.375933 0.417422 0.077630
0.420208 0.420697 0.079612
0.465429 0.424408 0.081169
0.510983 0.428145 0.082738
0.557132 0.431932 0.084327
0.603902 0.435657 0.086751
0.651812 0.439439 0.089489
0.701338 0.443347 0.092320
0.752947 0.447420 0.095269
0.807204 0.451702 0.098370
0.864789 0.456247 0.101661
0.877462 0.457247 0.102385
0.877462 0.457247 0.102385
0.877462 0.457247 0.102385
0.053322 0.440624 0.066420
0.053322 0.440624 0.066420
0.053322 0.440624 0.066420
0.053322 0.440624 0.066420
0.056885 0.440884 0.066584
0.106936 0.444529 0.068899
0.155345 0.448054 0.071138
0.202422 0.451482 0.073315
0.248443 0.454833 0.075443
0.293657 0.458125 0.077534
0.338384 0.461419 0.079556
0.383651 0.465133 0.081115
0.428781 0.468836 0.082669
0.474003 0.472546 0.084227
0.519321 0.476167 0.086501
0.565127 0.479782 0.089119
0.611816 0.483467 0.091787
0.659726 0.487248 0.094525
0.709252 0.491156 0.097356
0.760861 0.495230 0.100305
0.815118 0.499512 0.103406
0.872703 0.504056 0.106697
0.885376 0.505057 0.107421
0.885376 0.505057 0.107421
0.885376 0.505057 0.107421
0.060026 0.488150 0.070466
0.060026 0.488150 0.070466
0.060026 0.488150 0.070466
0.060026 0.488150 0.070466
0.063589 0.488410 0.070631
0.113640 0.492055 0.072945
0.162049 0.495580 0.075184
0.209125 0.499008 0.077361
0.255179 0.502376 0.079473
0.301393 0.506167 0.081064
0.347020 0.509911 0.082636
0.392287 0.513625 0.084195
0.437192 0.517216 0.086425
0.482078 0.520758 0.088990
0.527293 0.524327 0.091574
0.573099 0.527942 0.094192
0.619788 0.531627 0.096860
0.667698 0.535408 0.099598
0.717224 0.539317 0.102429
0.768833 0.543390 0.105378
0.823090 0.547672 0.108479
0.880675 0.552217 0.111770
0.893348 0.553217 0.112494
0.893348 0.553217 0.112494
0.893348 0.553217 0.112494
0.066817 0.536297 0.074565
0.066817 0.536297 0.074565
0.066817 0.536297 0.074565
0.066817 0.536297 0.074565
0.070380 0.536557 0.074730
0.120431 0.540201 0.077045
0.168840 0.543727 0.079283
0.216891 0.547642 0.080973
0.263929 0.551501 0.082593
0.310142 0.555293 0.084185
0.355543 0.558924 0.086436
0.400474 0.562470 0.089004
0.445269 0.566005 0.091564
0.490154 0.569548 0.094129
0.535369 0.573116 0.096713
0.581175 0.576731 0.099331
0.627865 0.580416 0.102000
0.675775 0.584197 0.104738
0.725300 0.588106 0.107568
0.776909 0.592179 0.110518
0.831166 0.596461 0.113619
0.888751 0.601006 0.116910
0.901425 0.602006 0.117634
0.901425 0.602006 0.117634
0.901425 0.602006 0.117634
0.073739 0.585373 0.078744
0.073739 0.585373 0.078744
0.073739 0.585373 0.078744
0.073739 0.585373 0.078744
0.077302 0.585632 0.078908
0.128214 0.589708 0.080792
0.177693 0.593767 0.082496
0.225809 0.597715 0.084154
0.272616 0.601460 0.086465
0.318486 0.605080 0.089086
0.363775 0.608654 0.091675
0.408705 0.612200 0.094243
0.453501 0.615735 0.096803
0.498386 0.619278 0.099368
0.543601 0.622846 0.101952
0.589407 0.626462 0.104570
0.636097 0.630146 0.107238
0.684006 0.633928 0.109976
0.733532 0.637836 0.112807
0.785141 0.641909 0.115756
0.839398 0.646191 0.118857
0.896983 0.650736 0.122148
0.909657 0.651736 0.122872
0.909657 0.651736 0.122872
0.909657 0.651736 0.122872
0.082567 0.636594 0.082169
0.082567 0.636594 0.082169
0.082567 0.636594 0.082169
0.082567 0.636594 0.082169
0.086209 0.636893 0.082294
0.137366 0.641090 0.084056
0.186616 0.645036 0.086443
0.234375 0.648805 0.089172
0.281063 0.652490 0.091840
0.326934 0.656110 0.094462
0.372222 0.659685 0.097050
0.417153 0.663231 0.099618
0.461948 0.666766 0.102178
0.506833 0.670308 0.104743
0.552049 0.673877 0.107327
0.597854 0.677492 0.109945
0.644544 0.681177 0.112614
0.692454 0.684958 0.115352
0.741979 0.688867 0.118182
0.793588 0.692940 0.121132
0.847845 0.697222 0.124232
0.905430 0.701767 0.127524
0.918104 0.702767 0.128248
0.918104 0.702767 0.128248
0.918104 0.702767 0.128248
0.091846 0.689618 0.086084
0.091846 0.689618 0.086084
0.091846 0.689618 0.086084
0.091846 0.689618 0.086084
0.095461 0.689904 0.086291
0.146238 0.693911 0.089193
0.195348 0.697787 0.091999
0.243107 0.701556 0.094729
0.289795 0.705241 0.097397
0.335666 0.708861 0.100019
0.380954 0.712436 0.102607
0.425885 0.715982 0.105175
0.470680 0.719517 0.107735
0.515565 0.723059 0.110300
0.560781 0.726628 0.112884
0.606586 0.730243 0.115502
0.653276 0.733928 0.118170
0.701186 0.737709 0.120908
0.750711 0.741618 0.123739
0.802320 0.745691 0.126688
0.856577 0.749973 0.129789
0.914162 0.754518 0.133080
0.926836 0.755518 0.133805
0.926836 0.755518 0.133805
0.926836 0.755518 0.133805
0.100946 0.744589 0.091875
0.100946 0.744589 0.091875
0.100946 0.744589 0.091875
0.100946 0.744589 0.091875
0.104561 0.744875 0.092081
0.155337 0.748882 0.094983
0.204448 0.752758 0.097790
0.252207 0.756527 0.100519
0.298895 0.760212 0.103188
0.344765 0.763832 0.105809
0.390053 0.767407 0.108397
0.434984 0.770953 0.110965
0.479779 0.774488 0.113525
0.524665 0.778030 0.116091
0.569880 0.781599 0.118675
0.615686 0.785214 0.121293
0.662375 0.788899 0.123961
0.710285 0.792680 0.126699
0.759810 0.796589 0.129529
0.811420 0.800662 0.132479
0.865677 0.804944 0.135580
0.923262 0.809489 0.138871
0.935935 0.810489 0.139595
0.935935 0.810489 0.139595
0.935935 0.810489 0.139595
0.110512 0.802380 0.097962
0.110512 0.802380 0.097962
0.110512 0.802380 0.097962
0.110512 0.802380 0.097962
0.114127 0.802665 0.098169
0.164903 0.806673 0.101071
0.214014 0.810549 0.103877
0.261773 0.814318 0.106607
0.308461 0.818003 0.109275
0.354331 0.821623 0.111897
0.399619 0.825197 0.114485
0.444550 0.828743 0.117053
0.489345 0.832279 0.119613
0.534231 0.835821 0.122178
0.579446 0.839390 0.124762
0.625252 0.843005 0.127380
0.671941 0.846690 0.130048
0.719851 0.850471 0.132787
0.769377 0.854379 0.135617
0.820986 0.858453 0.138566
0.875243 0.862735 0.141667
0.932828 0.867279 0.144958
0.945501 0.868280 0.145683
0.945501 0.868280 0.145683
0.945501 0.868280 0.145683
0.120665 0.863716 0.104423
0.120665 0.863716 0.104423
0.120665 0.863716 0.104423
0.120665 0.863716 0.104423
0.124280 0.864001 0.104630
0.175056 0.868009 0.107532
0.224167 0.871884 0.110338
0.271926 0.875654 0.113068
0.318614 0.879339 0.115736
0.364484 0.882959 0.118358
0.409772 0.886533 0.120946
0.454703 0.890079 0.123514
0.499498 0.893614 0.126074
0.544384 0.897157 0.128639
0.589599 0.900725 0.131223
0.635405 0.904341 0.133841
0.682094 0.908025 0.136509
0.730004 0.911807 0.139248
0.779530 0.915715 0.142078
0.831139 0.919788 0.145027
0.885396 0.924070 0.148128
0.942981 0.928615 0.151419
0.955654 0.929615 0.152144
0.955654 0.929615 0.152144
0.955654 0.929615 0.152144
0.122900 0.877215 0.105845
0.122900 0.877215 0.105845
0.122900 0.877215 0.105845
0.122900 0.877215 0.105845
0.126514 0.877500 0.106052
0.177291 0.881507 0.108954
0.226401 0.885383 0.111760
0.274160 0.889153 0.114490
0.320848 0.892837 0.117158
0.366719 0.896458 0.119780
0.412007 0.900032 0.122368
0.456938 0.903578 0.124936
0.501733 0.907113 0.127496
0.546618 0.910656 0.130061
0.591834 0.914224 0.132645
0.637639 0.917839 0.135263
0.684329 0.921524 0.137931
0.732239 0.925305 0.140669
0.781764 0.929214 0.143500
0.833374 0.933287 0.146449
0.887630 0.937569 0.149550
0.945215 0.942114 0.152841
0.957889 0.943114 0.153566
0.957889 0.943114 0.153566
0.957889 0.943114 0.153566
0.122900 0.877215 0.105845
0.122900 0.877215 0.105845
0.122900 0.877215 0.105845
0.122900 0.877215 0.105845
0.126514 0.877500 0.106052
0.177291 0.881507 0.108954
0.226401 0.885383 0.111760
0.274160 0.889153 0.114490
0.320848 0.892837 0.117158
0.366719 0.896458 0.119780
0.412007 0.900032 0.122368
0.456938 0.903578 0.124936
0.501733 0.907113 0.127496
0.546618 0.910656 0.130061
0.591834 0.914224 0.132645
0.637639 0.917839 0.135263
0.684329 0.921524 0.137931
0.732239 0.925305 0.140669
0.781764 0.929214 0.143500
0.833374 0.933287 0.146449
0.887630 0.937569 0.149550
0.945215 0.942114 0.152841
0.957889 0.943114 0.153566
0.957889 0.943114 0.153566
0.957889 0.943114 0.153566
0.122900 0.877215 0.105845
0.122900 0.877215 0.105845
0.122900 0.877215 0.105845
0.122900 0.877215 0.105845
0.126514 0.877500 0.106052
0.177291 0.881507 0.108954
0.226401 0.885383 0.111760
0.274160 0.889153 0.114490
0.320848 0.892837 0.117158
0.366719 0.896458 0.119780
0.412007 0.900032 0.122368
0.456938 0.903578 0.124936
0.501733 0.907113 0.127496
0.546618 0.910656 0.130061
0.591834 0.914224 0.132645
0.637639 0.917839 0.135263
0.684329 0.921524 0.137931
0.732239 0.925305 0.140669
0.781764 0.929214 0.143500
0.833374 0.933287 0.146449
0.887630 0.937569 0.149550
0.945215 0.942114 0.152841
0.957889 0.943114 0.153566
0.957889 0.943114 0.153566
0.957889 0.943114 0.153566
0.000000 0.000000 0.028500
0.000000 0.000000 0.028500
0.000000 0.000000 0.028500
0.000000 0.000000 0.028500
0.000000 0.000000 0.028665
0.044114 0.000000 0.030979
0.092523 0.002679 0.033218
0.139600 0.006107 0.035395
0.185621 0.009459 0.037523
0.230835 0.012751 0.039614
0.275477 0.016002 0.041679
0.319765 0.019227 0.043727
0.363921 0.022442 0.045769
0.408165 0.025664 0.047815
0.452734 0.028910 0.049876
0.497885 0.032197 0.051964
0.543908 0.035549 0.054093
0.591133 0.038988 0.056277
0.639951 0.042543 0.058534
0.690823 0.046247 0.060887
0.744304 0.050141 0.063360
0.801067 0.054275 0.065985
0.813559 0.055185 0.066563
0.813559 0.055185 0.066563
0.813559 0.055185 0.066563
0.000000 0.000000 0.028500
0.000000 0.000000 0.028500
0.000000 0.000000 0.028500
0.000000 0.000000 0.028500
0.000000 0.000000 0.028665
0.044114 0.000000 0.030979
0.092523 0.002679 0.033218
0.139600 0.006107 0.035395
0.185621 0.009459 0.037523
0.230835 0.012751 0.039614
0.275477 0.016002 0.041679
0.319765 0.019227 0.043727
0.363921 0.022442 0.045769
0.408165 0.025664 0.047815
0.452734 0.028910 0.049876
0.497885 0.032197 0.051964
0.543908 0.035549 0.054093
0.591133 0.038988 0.056277
0.639951 0.042543 0.058534
0.690823 0.046247 0.060887
0.744304 0.050141 0.063360
0.801067 0.054275 0.065985
0.813559 0.055185 0.066563
0.813559 0.055185 0.066563
0.813559 0.055185 0.066563
0.000000 0.000000 0.028500
0.000000 0.000000 0.028500
0.000000 0.000000 0.028500
0.000000 0.000000 0.028500
0.000000 0.000000 0.028665
0.044114 0.000000 0.030979
0.092523 0.002679 0.033218
0.139600 0.006107 0.035395
0.185621 0.009459 0.037523
0.230835 0.012751 0.039614
0.275477 0.016002 0.041679
0.319765 0.019227 0.043727
0.363921 0.022442 0.045769
0.408165 0.025664 0.047815
0.452734 0.028910 0.049876
0.497885 0.032197 0.051964
0.543908 0.035549 0.054093
0.591133 0.038988 0.056277
0.639951 0.042543 0.058534
0.690823 0.046247 0.060887
0.744304 0.050141 0.063360
0.801067 0.054275 0.065985
0.813559 0.055185 0.066563
0.813559 0.055185 0.066563
0.813559 0.055185 0.066563
0.000000 0.000000 0.028500
0.000000 0.000000 0.028500
0.000000 0.000000 0.028500
0.000000 0.000000 0.028500
0.000000 0.000000 0.028665
0.044114 0.000000 0.030979
0.092523 0.002679 0.033218
0.139600 0.006107 0.035395
0.185621 0.009459 0.037523
0.230835 0.012751 0.039614
0.275477 0.016002 0.041679
0.319765 0.019227 0.043727
0.363921 0.022442 0.045769
0.408165 0.025664 0.047815
0.452734 0.028910 0.049876
0.497885 0.032197 0.051964
0.543908 0.035549 0.054093
0.591133 0.038988 0.056277
0.639951 0.042543 0.058534
0.690823 0.046247 0.060887
0.744304 0.050141 0.063360
0.801067 0.054275 0.065985
0.813559 0.055185 0.066563
0.813559 0.055185 0.066563
0.813559 0.055185 0.066563
0.000000 0.000000 0.028823
0.000000 0.000000 0.028823
0.000000 0.000000 0.028823
0.000000 0.000000 0.028823
0.000000 0.000000 0.028988
0.044650 0.002954 0.031303
0.093059 0.006479 0.033542
0.140136 0.009907 0.035719
0.186156 0.013258 0.037847
0.231371 0.016551 0.039938
0.276013 0.019801 0.042002
0.320301 0.023026 0.044051
0.364456 0.026242 0.046092
0.408701 0.029464 0.048139
0.453270 0.032709 0.050200
0.498421 0.035997 0.052288
0.544444 0.039348 0.054416
0.591669 0.042787 0.056600
0.640487 0.046342 0.058858
0.691359 0.050046 0.061210
0.744840 0.053941 0.063683
0.801603 0.058074 0.066308
0.814095 0.058984 0.066886
0.814095 0.058984 0.066886
0.814095 0.058984 0.066886
0.000000 0.052421 0.033368
0.000000 0.052421 0.033368
0.000000 0.052421 0.033368
0.000000 0.052421 0.033368
0.002127 0.052680 0.033532
0.052178 0.056325 0.035847
0.100587 0.059850 0.038086
0.147664 0.063278 0.040263
0.193685 0.066629 0.042391
0.238900 0.069922 0.044482
0.283541 0.073173 0.046546
0.327830 0.076398 0.048595
0.371985 0.079613 0.050637
0.416229 0.082835 0.052683
0.460798 0.086080 0.054744
0.505950 0.089368 0.056832
0.551972 0.092720 0.058960
0.599197 0.096159 0.061144
0.648015 0.099713 0.063402
0.698887 0.103418 0.065754
0.752369 0.107312 0.068228
0.809131 0.111446 0.070853
0.821623 0.112355 0.071430
0.821623 0.112355 0.071430
0.821623 0.112355 0.071430
0.005845 0.104041 0.037763
0.005845 0.104041 0.037763
0.005845 0.104041 0.037763
0.005845 0.104041 0.037763
0.009409 0.104301 0.037927
0.059459 0.107946 0.040242
0.107868 0.111471 0.042481
0.154945 0.114899 0.044658
0.200966 0.118250 0.046786
0.246181 0.121542 0.048877
0.290822 0.124793 0.050941
0.335111 0.128018 0.052990
0.379266 0.131234 0.055032
0.423510 0.134455 0.057078
0.468080 0.137701 0.059139
0.513231 0.140989 0.061227
0.559253 0.144340 0.063355
0.606479 0.147779 0.065539
0.655296 0.151334 0.067797
0.706168 0.155038 0.070149
0.759650 0.158933 0.072623
0.816412 0.163066 0.075248
0.828905 0.163976 0.075825
0.828905 0.163976 0.075825
0.828905 0.163976 0.075825
0.012926 0.154242 0.042037
0.012926 0.154242 0.042037
0.012926 0.154242 0.042037
0.012926 0.154242 0.042037
0.016490 0.154501 0.042201
0.066540 0.158146 0.044516
0.114949 0.161671 0.046755
0.162026 0.165099 0.048932
0.208047 0.168450 0.051060
0.253262 0.171743 0.053151
0.297903 0.174993 0.055216
0.342192 0.178218 0.057264
0.386347 0.181434 0.059306
0.430591 0.184656 0.061352
0.475160 0.187901 0.063413
0.520312 0.191189 0.065501
0.566334 0.194540 0.067629
0.613560 0.197979 0.069813
0.662377 0.201534 0.072071
0.713249 0.205239 0.074423
0.766731 0.209133 0.076897
0.823542 0.213291 0.079497
0.836310 0.214338 0.079937
0.836310 0.214338 0.079937
0.836310 0.214338 0.079937
0.019849 0.203316 0.046215
0.019849 0.203316 0.046215
0.019849 0.203316 0.046215
0.019849 0.203316 0.046215
0.023412 0.203575 0.046380
0.073463 0.207220 0.048694
0.121871 0.210745 0.050933
0.168948 0.214173 0.053110
0.214969 0.217524 0.055238
0.260184 0.220817 0.057329
0.304825 0.224067 0.059394
0.349114 0.227292 0.061442
0.393269 0.230508 0.063484
0.437513 0.233730 0.065530
0.482083 0.236975 0.067591
0.527234 0.240263 0.069679
0.573256 0.243614 0.071807
0.620482 0.247053 0.073991
0.669299 0.250608 0.076249
0.720171 0.254313 0.078602
0.774443 0.258602 0.080680
0.832459 0.263363 0.082678
0.845228 0.264410 0.083118
0.845228 0.264410 0.083118
0.845228 0.264410 0.083118
0.026649 0.251530 0.050320
0.026649 0.251530 0.050320
0.026649 0.251530 0.050320
0.026649 0.251530 0.050320
0.030213 0.251790 0.050485
0.080263 0.255434 0.052799
0.128672 0.258960 0.055038
0.175749 0.262388 0.057215
0.221770 0.265739 0.059343
0.266985 0.269031 0.061434
0.311626 0.272282 0.063499
0.355915 0.275507 0.065547
0.400070 0.278723 0.067589
0.444314 0.281944 0.069635
0.488883 0.285190 0.071696
0.534035 0.288478 0.073784
0.580057 0.291829 0.075912
0.627283 0.295268 0.078096
0.676546 0.299046 0.080131
0.728542 0.303312 0.081922
0.783205 0.307797 0.083804
0.840984 0.312439 0.086512
0.853658 0.313439 0.087237
0.853658 0.313439 0.087237
0.853658 0.313439 0.087237
0.033364 0.299133 0.054373
0.033364 0.299133 0.054373
0.033364 0.299133 0.054373
0.033364 0.299133 0.054373
0.036927 0.299393 0.054538
0.086978 0.303037 0.056852
0.135387 0.306562 0.059091
0.182464 0.309990 0.061268
